icon/lg/deviantart.svg

<?xml version="1.0" encoding="UTF-8" standalone="no"?>
<svg viewBox="0 0 512 130" version="1.1" xmlns="http://www.w3.org/2000/svg" xmlns:xlink="http://www.w3.org/1999/xlink" preserveAspectRatio="xMidYMid" height="1em" width="1em">
  <g>
    <path d="M80.1343054,23.6661281 L80.1343054,0.242758621 L56.7103054,0.242758621 L54.3728867,2.60035468 L43.3201182,23.6636059 L39.8445714,26.0085911 L0.396610837,26.0085911 L0.396610837,58.1756847 L22.083468,58.1756847 L24.0148177,60.5118424 L0.396610837,105.643507 L0.396610837,129.067507 L23.8199803,129.067507 L26.1580296,126.710542 L37.2114286,105.64666 L40.6863448,103.302305 L80.1343054,103.302305 L80.1343054,71.1345813 L58.4474483,71.1345813 L56.5179901,68.7826601 L80.1343054,23.6661281" fill="#45AD47"/>
    <path d="M125.899665,106.71669 L132.554404,94.0150542 L135.624512,106.71669 L125.899665,106.71669 L125.899665,106.71669 Z M126.547862,71.1383645 L96.233931,129.067507 L114.22266,129.067507 L118.62132,120.637793 L138.932966,120.636532 L140.942502,129.067507 L158.92997,129.067507 L145.066246,71.1383645 L126.547862,71.1383645 Z M187.219862,98.2201379 L179.534187,98.2201379 L179.534187,86.5071921 L187.219862,86.5071921 C191.902897,86.5071921 193.681655,88.8502857 193.681655,92.4103251 C193.681655,95.878936 191.902897,98.2201379 187.219862,98.2201379 Z M211.300256,92.1246897 C211.300256,78.8221478 202.303054,71.1383645 189.654384,71.1383645 L162.205005,71.1383645 L162.205005,129.073182 L179.534187,129.073182 L179.534187,112.175921 L183.750621,112.175921 L187.192749,112.166463 L195.582739,129.073182 L213.572099,129.073182 L202.874325,108.631015 C208.121064,105.288512 211.300256,99.6230936 211.300256,92.1246897 Z M213.863409,71.1383645 L213.863409,86.4958424 L230.23732,86.4958424 L230.23732,129.073182 L240.104039,129.073182 L247.553261,114.822305 L247.553261,86.4958424 L262.404414,86.4958424 L270.434365,71.1383645 L213.863409,71.1383645 Z M310.946049,0.242758621 L328.258837,0.242758621 L328.258837,58.1693793 L310.946049,58.1693793 L310.946049,0.242758621 Z M163.685517,0.271763547 L155.905892,15.1235468 L160.682877,15.1235468 C169.211586,15.1235468 174.611547,20.5745813 174.611547,29.1985025 C174.611547,37.7221675 169.211586,43.1750936 160.682877,43.1750936 L155.284177,43.1750936 L155.284177,16.3102266 L138.536355,48.2831133 L138.536355,58.1605517 L161.83803,58.1605517 C180.614305,58.1605517 191.65068,46.8391724 191.65068,29.1978719 C191.65068,12.1404532 181.334384,0.996256158 163.685517,0.271763547 Z M196.229675,58.1693793 L240.446424,58.1693793 L240.446424,42.8144236 L213.541833,42.8144236 L213.541833,36.5544039 L238.27799,36.5544039 L238.27799,21.8564729 L213.541833,21.8564729 L213.541833,15.5983448 L240.446424,15.5983448 L240.446424,0.242758621 L196.229675,0.242758621 L196.229675,58.1693793 Z M271.229478,35.2971034 L262.837596,0.242758621 L244.867153,0.242758621 L258.739074,58.1674877 L277.2253,58.1674877 L307.566975,0.242758621 L289.576355,0.242758621 L271.229478,35.2971034 Z M455.0627,0.238344828 L455.0627,15.5958227 L471.436611,15.5958227 L471.436611,58.1731626 L481.30333,58.1731626 L488.753182,43.9222857 L488.753182,15.5958227 L503.604335,15.5958227 L511.633655,0.238344828 L455.0627,0.238344828 Z M361.294187,35.8217143 L367.938207,23.1314286 L371.007685,35.8217143 L361.294187,35.8217143 Z M361.968236,0.242758621 L331.646108,58.1674877 L349.604571,58.1674877 L354.018995,49.7276847 L374.311094,49.7270542 L376.325675,58.1674877 L394.289182,58.1693793 L380.424828,0.242758621 L361.968236,0.242758621 Z M434.042325,27.6820493 L414.651901,0.242758621 L397.577458,0.242758621 L397.577458,58.1693793 L414.885202,58.1693793 L414.885202,28.7508177 L436.352,58.1693793 L451.35133,58.1693793 L451.35133,0.242758621 L434.042325,0.242758621 L434.042325,27.6820493 Z" fill="#1F211F"/>
  </g>
</svg>

<svg width="512" height="130" xmlns="http://www.w3.org/2000/svg" preserveAspectRatio="xMidYMid"><path d="M80.134 23.666V.243H56.71L54.373 2.6 43.32 23.664l-3.475 2.345H.397v32.167h21.686l1.932 2.336L.397 105.644v23.424H23.82l2.338-2.357 11.053-21.064 3.475-2.345h39.448V71.135H58.447l-1.929-2.352 23.616-45.117" fill="#45AD47"/><path d="m125.9 106.717 6.654-12.702 3.07 12.702H125.9Zm.648-35.579-30.314 57.93h17.989l4.398-8.43 20.312-.001 2.01 8.43h17.987l-13.864-57.929h-18.518ZM187.22 98.22h-7.686V86.507h7.686c4.683 0 6.462 2.343 6.462 5.903 0 3.469-1.78 5.81-6.462 5.81Zm24.08-6.095c0-13.303-8.997-20.987-21.646-20.987h-27.449v57.935h17.33v-16.897h4.216l3.442-.01 8.39 16.907h17.99l-10.699-20.442c5.247-3.342 8.426-9.008 8.426-16.506Zm2.563-20.987v15.358h16.374v42.577h9.867l7.45-14.25V86.495h14.85l8.03-15.358h-56.57ZM310.946.243h17.313v57.926h-17.313V.243Zm-147.26.029-7.78 14.852h4.777c8.529 0 13.929 5.45 13.929 14.075 0 8.523-5.4 13.976-13.93 13.976h-5.398V16.31l-16.748 31.973v9.878h23.302c18.776 0 29.813-11.322 29.813-28.963 0-17.058-10.317-28.202-27.965-28.926Zm32.544 57.897h44.216V42.814h-26.904v-6.26h24.736V21.856h-24.736v-6.258h26.904V.243H196.23v57.926Zm75-22.872L262.837.243h-17.97l13.871 57.924h18.486L307.567.243h-17.99l-18.348 35.054ZM455.062.238v15.358h16.374v42.577h9.866l7.45-14.25V15.595h14.851l8.03-15.358h-56.571Zm-93.769 35.584 6.644-12.69 3.07 12.69h-9.714Zm.674-35.58-30.322 57.925h17.959l4.414-8.44h20.292l2.015 8.44 17.963.002L380.425.243h-18.457Zm72.074 27.44L414.652.242h-17.075V58.17h17.308V28.751l21.467 29.418h15V.243h-17.31v27.439Z" fill="#1F211F"/></svg>
